assets/images/icons/hunting.svg

<svg width="32" height="32" viewBox="0 0 32 32" fill="none" xmlns="http://www.w3.org/2000/svg">
<path opacity="0.1" d="M0.223155 23.1618C-0.0589054 20.752 -0.098086 18.3874 0.248062 16.248C0.673696 13.6174 1.78493 10.6909 2.99894 8.07362C5.37163 2.95839 9.61911 1.16885 14.7912 0.362065C22.0007 -0.762522 31.9372 0.362091 32 9.08714C31.6383 12.2073 29.2517 20.8815 21.1951 21.5434C18.5313 21.7622 17.5348 24.4378 16.3612 27.5006C13.2729 35.5602 1.25575 31.9835 0.223155 23.1618Z" fill="#7FB51F"/>
<g clip-path="url(#clip0_242_6486)">
<path d="M13.9343 17.8644C13.932 16.6088 12.9147 15.5914 11.659 15.5891C11.0501 15.5805 10.462 15.8106 10.0208 16.2303L7.40625 19.0393C7.78252 18.9462 8.16867 18.899 8.55633 18.8987C10.5761 18.9004 12.3934 20.1255 13.1524 21.9972L13.9053 18.3319C13.9275 18.1771 13.9372 18.0208 13.9343 17.8644Z" fill="#7FB51F"/>
<path d="M17.2484 18.0962C17.2484 18.088 17.2443 18.0797 17.2443 18.0714C17.2443 17.386 16.6886 16.8303 16.0032 16.8303C15.3178 16.8303 14.7621 17.386 14.7621 18.0714C14.7621 18.0797 14.758 18.088 14.758 18.0962C14.7543 18.2281 14.7404 18.3595 14.7166 18.4892V18.4934L13.9844 22.076C15.1708 21.1493 16.8356 21.1493 18.022 22.076L17.2898 18.4934V18.4892C17.266 18.3595 17.2522 18.2281 17.2484 18.0962Z" fill="#7FB51F"/>
<path d="M16.0032 25.5178C16.4601 25.5178 16.8305 25.1474 16.8305 24.6904C16.8305 24.2335 16.4601 23.863 16.0032 23.863C15.5462 23.863 15.1758 24.2335 15.1758 24.6904C15.1758 25.1474 15.5462 25.5178 16.0032 25.5178Z" fill="#7FB51F"/>
<path d="M8.5549 19.7261C6.27016 19.7261 4.41797 21.5782 4.41797 23.863C4.41797 26.1478 6.27011 27.9999 8.5549 27.9999C10.8397 27.9999 12.6918 26.1478 12.6918 23.863C12.6882 21.5798 10.8382 19.7297 8.5549 19.7261ZM5.7803 22.3294L7.02139 21.0884C7.18372 20.9316 7.44175 20.9338 7.60132 21.0934C7.76089 21.253 7.76314 21.511 7.60638 21.6734L6.36529 22.9144C6.20296 23.0712 5.94493 23.069 5.78536 22.9094C5.62574 22.7498 5.62349 22.4918 5.7803 22.3294ZM10.0885 21.2596L5.95153 25.3966C5.7892 25.5533 5.53117 25.5511 5.3716 25.3915C5.21203 25.2319 5.20978 24.9739 5.36654 24.8116L9.50347 20.6746C9.66581 20.5179 9.92384 20.5201 10.0834 20.6797C10.243 20.8393 10.2453 21.0973 10.0885 21.2596Z" fill="#7FB51F"/>
<path d="M23.4488 18.8987C23.8364 18.8991 24.2225 18.9463 24.5989 19.0394L21.9719 16.218C21.5322 15.8052 20.9492 15.5796 20.3461 15.5892C19.0905 15.5915 18.0731 16.6088 18.0708 17.8645C18.0679 18.0208 18.0776 18.1772 18.0998 18.3319L18.8527 21.9972C19.6118 20.1256 21.4291 18.9004 23.4488 18.8987Z" fill="#7FB51F"/>
<path d="M16.0017 22.2083C14.6309 22.2083 13.5195 23.3195 13.5195 24.6904C13.5195 26.0613 14.6308 27.1726 16.0017 27.1726C17.3726 27.1726 18.4839 26.0613 18.4839 24.6904C18.4838 23.3195 17.3726 22.2083 16.0017 22.2083ZM16.0017 26.3452C15.0878 26.3452 14.347 25.6043 14.347 24.6904C14.347 23.7765 15.0878 23.0357 16.0017 23.0357C16.9156 23.0357 17.6565 23.7765 17.6565 24.6904C17.6565 25.6043 16.9156 26.3452 16.0017 26.3452Z" fill="#7FB51F"/>
<path d="M23.4494 19.7261C21.1647 19.7261 19.3125 21.5782 19.3125 23.863C19.3125 26.1478 21.1646 27.9999 23.4494 27.9999C25.7342 27.9999 27.5864 26.1478 27.5864 23.863C27.5828 21.5798 25.7327 19.7297 23.4494 19.7261ZM20.6748 22.3294L21.9159 21.0884C22.0783 20.9316 22.3363 20.9338 22.4959 21.0934C22.6554 21.253 22.6577 21.511 22.5009 21.6734L21.2598 22.9144C21.0975 23.0712 20.8395 23.069 20.6799 22.9094C20.5203 22.7498 20.518 22.4918 20.6748 22.3294ZM24.983 21.2596L20.8461 25.3966C20.6837 25.5533 20.4257 25.5511 20.2661 25.3915C20.1066 25.2319 20.1043 24.9739 20.2611 24.8116L24.398 20.6746C24.5603 20.5179 24.8184 20.5201 24.9779 20.6797C25.1376 20.8393 25.1398 21.0973 24.983 21.2596Z" fill="#7FB51F"/>
<path d="M9.69154 13.6722C9.81479 13.8646 10.0707 13.9207 10.263 13.7974C10.4554 13.6741 10.5115 13.4182 10.3882 13.2259C9.0467 11.1372 9.0467 8.45801 10.3882 6.36934C10.5114 6.17697 10.4554 5.92109 10.263 5.79784C10.0707 5.67459 9.81479 5.73059 9.69154 5.92297C8.17574 8.28368 8.17574 11.3115 9.69154 13.6722Z" fill="#7FB51F"/>
<path d="M21.7415 13.7971C21.9336 13.9204 22.1893 13.8649 22.3128 13.673C23.8286 11.3123 23.8286 8.28443 22.3128 5.92372C22.1896 5.73134 21.9337 5.6753 21.7413 5.79859C21.549 5.92185 21.4929 6.17772 21.6162 6.3701C22.9577 8.45876 22.9577 11.138 21.6162 13.2266C21.4937 13.4189 21.5497 13.6739 21.7415 13.7971Z" fill="#7FB51F"/>
<path d="M11.0387 10.2112H11.8868C12.0854 12.1679 13.6326 13.7152 15.5894 13.9137V14.7618C15.5894 14.9903 15.7746 15.1755 16.0031 15.1755C16.2316 15.1755 16.4168 14.9903 16.4168 14.7618V13.9137C18.3735 13.7152 19.9208 12.1679 20.1193 10.2112H20.9674C21.1959 10.2112 21.3811 10.026 21.3811 9.79746C21.3811 9.56895 21.1959 9.38375 20.9674 9.38375H20.1193C19.9208 7.427 18.3735 5.87975 16.4168 5.68119V4.83315C16.4168 4.60469 16.2316 4.41943 16.0031 4.41943C15.7746 4.41943 15.5894 4.60464 15.5894 4.83315V5.68124C13.6326 5.8798 12.0854 7.42705 11.8868 9.38379H11.0387C10.8103 9.38379 10.625 9.569 10.625 9.79751C10.625 10.026 10.8103 10.2112 11.0387 10.2112ZM13.5208 9.38375H12.7224C12.9124 7.88608 14.0917 6.70675 15.5893 6.51686V7.31528C15.5893 7.54374 15.7745 7.72899 16.003 7.72899C16.2315 7.72899 16.4167 7.54379 16.4167 7.31528V6.51686C17.9144 6.7068 19.0937 7.88613 19.2836 9.38375H18.4852C18.2567 9.38375 18.0715 9.56895 18.0715 9.79746C18.0715 10.026 18.2567 10.2112 18.4852 10.2112H19.2836C19.0937 11.7088 17.9144 12.8882 16.4167 13.0781V12.2796C16.4167 12.0512 16.2315 11.8659 16.003 11.8659C15.7745 11.8659 15.5893 12.0511 15.5893 12.2796V13.0781C14.0916 12.8881 12.9123 11.7088 12.7224 10.2112H13.5208C13.7493 10.2112 13.9346 10.026 13.9346 9.79746C13.9346 9.56895 13.7494 9.38375 13.5208 9.38375Z" fill="#7FB51F"/>
<path d="M15.9997 10.2112C16.2281 10.2112 16.4134 10.026 16.4134 9.7975C16.4134 9.56901 16.2281 9.38379 15.9997 9.38379C15.7712 9.38379 15.5859 9.56901 15.5859 9.7975C15.5859 10.026 15.7712 10.2112 15.9997 10.2112Z" fill="#7FB51F"/>
<path d="M8.28958 14.5351C8.36569 14.654 8.49714 14.7259 8.63834 14.7258C8.71736 14.7259 8.79468 14.7031 8.8609 14.66C9.05281 14.5364 9.10834 14.2808 8.98499 14.0887C7.30545 11.4744 7.30545 8.12053 8.98499 5.50624C9.06471 5.38182 9.07202 5.22426 9.00412 5.09299C8.93621 4.96173 8.80344 4.87663 8.65578 4.86983C8.50816 4.86299 8.36808 4.93544 8.28832 5.05991C6.43514 7.94587 6.43514 11.6475 8.28832 14.5335L8.28958 14.5351Z" fill="#7FB51F"/>
<path d="M24.2756 9.79761C24.2753 11.3191 23.8381 12.8086 23.0159 14.0889C22.8926 14.2809 22.9481 14.5366 23.14 14.6602C23.2062 14.7032 23.2836 14.7261 23.3625 14.726C23.5037 14.7261 23.6352 14.6542 23.7113 14.5352C25.5645 11.6493 25.5645 7.94766 23.7113 5.06166C23.588 4.86928 23.3322 4.81323 23.1398 4.93653C22.9474 5.05978 22.8914 5.31566 23.0147 5.50804C23.837 6.78765 24.2746 8.27651 24.2756 9.79761Z" fill="#7FB51F"/>
<path d="M7.23885 15.5892C7.39008 15.5891 7.52917 15.5065 7.60167 15.3737C7.67417 15.241 7.66845 15.0793 7.58677 14.9521C5.56905 11.8118 5.56905 7.78305 7.58677 4.64286C7.66958 4.51843 7.67881 4.35905 7.611 4.22591C7.54319 4.09277 7.40878 4.00654 7.25947 4.00036C7.11017 3.99417 6.96911 4.06901 6.89052 4.19611C4.69795 7.60853 4.69795 11.9865 6.89052 15.3989C6.96662 15.5175 7.09793 15.5892 7.23885 15.5892Z" fill="#7FB51F"/>
<path d="M25.9302 9.79753C25.9301 11.6253 25.4048 13.4144 24.4169 14.9522C24.3341 15.0766 24.3249 15.236 24.3927 15.3691C24.4605 15.5022 24.5949 15.5885 24.7442 15.5947C24.8936 15.6008 25.0346 15.526 25.1132 15.3989C27.3058 11.9865 27.3058 7.60853 25.1132 4.19611C25.0346 4.06901 24.8936 3.99417 24.7442 4.00036C24.5949 4.00654 24.4606 4.09277 24.3927 4.22591C24.3249 4.35905 24.3341 4.51848 24.4169 4.64286C25.4048 6.18064 25.9301 7.9698 25.9302 9.79753Z" fill="#7FB51F"/>
</g>
<defs>
<clipPath id="clip0_242_6486">
<rect width="24" height="24" fill="white" transform="translate(4 4)"/>
</clipPath>
</defs>
</svg>

<svg xmlns="http://www.w3.org/2000/svg" width="32" height="32" fill="none"><path fill="#7FB51F" d="M.223 23.162c-.282-2.41-.321-4.775.025-6.914.426-2.63 1.537-5.557 2.75-8.174C5.373 2.958 9.62 1.169 14.792.362 22.001-.763 31.937.362 32 9.087c-.362 3.12-2.748 11.795-10.805 12.456-2.664.22-3.66 2.895-4.834 5.958-3.088 8.06-15.105 4.482-16.138-4.34" opacity=".1"/><g fill="#7FB51F" clip-path="url(#a)"><path d="M13.934 17.864a2.28 2.28 0 0 0-2.275-2.275 2.33 2.33 0 0 0-1.638.641l-2.615 2.81a4.8 4.8 0 0 1 1.15-.141 4.96 4.96 0 0 1 4.596 3.098l.753-3.665q.034-.233.03-.468m3.313.232-.004-.025a1.241 1.241 0 0 0-2.482 0l-.004.025a2.6 2.6 0 0 1-.041.393v.004l-.733 3.583a3.28 3.28 0 0 1 4.038 0l-.732-3.583v-.004a2.6 2.6 0 0 1-.042-.393m-1.245 7.422a.827.827 0 1 0 0-1.655.827.827 0 0 0 0 1.655"/><path d="M8.555 19.726a4.137 4.137 0 1 0 4.137 4.137 4.143 4.143 0 0 0-4.137-4.137M5.78 22.33l1.241-1.24a.414.414 0 0 1 .585.584l-1.24 1.241a.414.414 0 0 1-.586-.585m4.309-1.07-4.137 4.138a.414.414 0 0 1-.585-.585l4.136-4.137a.414.414 0 0 1 .585.585m13.361-2.362a4.8 4.8 0 0 1 1.15.14l-2.627-2.821a2.32 2.32 0 0 0-1.626-.629 2.28 2.28 0 0 0-2.275 2.275q-.004.236.029.468l.753 3.665a4.96 4.96 0 0 1 4.596-3.098m-7.447 3.309a2.482 2.482 0 1 0 0 4.965 2.482 2.482 0 0 0 0-4.965m0 4.137a1.655 1.655 0 1 1 0-3.31 1.655 1.655 0 0 1 0 3.31"/><path d="M23.45 19.726a4.137 4.137 0 1 0 4.136 4.137 4.144 4.144 0 0 0-4.137-4.137m-2.775 2.603 1.24-1.24a.414.414 0 0 1 .586.584l-1.241 1.241a.414.414 0 0 1-.585-.585m4.308-1.07-4.137 4.138a.414.414 0 0 1-.585-.585l4.137-4.137a.414.414 0 0 1 .585.585m-15.29-7.588a.414.414 0 1 0 .696-.446 6.34 6.34 0 0 1 0-6.857.414.414 0 0 0-.696-.446 7.17 7.17 0 0 0 0 7.75m12.05.124a.414.414 0 0 0 .57-.124 7.17 7.17 0 0 0 0-7.75.414.414 0 1 0-.696.447 6.34 6.34 0 0 1 0 6.857.414.414 0 0 0 .125.57m-10.702-3.586h.848a4.14 4.14 0 0 0 3.702 3.703v.848a.414.414 0 1 0 .828 0v-.848a4.14 4.14 0 0 0 3.702-3.703h.848a.414.414 0 1 0 0-.827h-.848a4.14 4.14 0 0 0-3.702-3.703v-.848a.414.414 0 1 0-.828 0v.848a4.14 4.14 0 0 0-3.702 3.703h-.848a.414.414 0 0 0 0 .827m2.482-.827h-.799a3.31 3.31 0 0 1 2.867-2.867v.798a.414.414 0 1 0 .828 0v-.798a3.31 3.31 0 0 1 2.867 2.867h-.799a.414.414 0 1 0 0 .827h.799a3.31 3.31 0 0 1-2.867 2.867v-.798a.414.414 0 0 0-.828 0v.798a3.31 3.31 0 0 1-2.867-2.867h.799a.414.414 0 1 0 0-.827"/><path d="M16 10.211a.414.414 0 1 0 0-.827.414.414 0 0 0 0 .827m-7.71 4.324a.414.414 0 1 0 .695-.446 7.94 7.94 0 0 1 0-8.583.414.414 0 1 0-.697-.446 8.77 8.77 0 0 0 0 9.474zm15.986-4.737a7.94 7.94 0 0 1-1.26 4.29.414.414 0 1 0 .695.447 8.77 8.77 0 0 0 0-9.473.414.414 0 1 0-.696.446 7.94 7.94 0 0 1 1.26 4.29"/><path d="M7.239 15.59a.414.414 0 0 0 .348-.638 9.54 9.54 0 0 1 0-10.31.414.414 0 1 0-.696-.446 10.36 10.36 0 0 0 0 11.203c.076.119.207.19.348.19M25.93 9.798a9.54 9.54 0 0 1-1.513 5.154.414.414 0 1 0 .696.447 10.36 10.36 0 0 0 0-11.203.414.414 0 1 0-.696.447 9.54 9.54 0 0 1 1.513 5.155"/></g><defs><clipPath id="a"><path fill="#fff" d="M4 4h24v24H4z"/></clipPath></defs></svg>
